justvector/blogger.svg

<?xml version="1.0" encoding="iso-8859-1"?>
<!-- Generator: Adobe Illustrator 15.0.0, SVG Export Plug-In . SVG Version: 6.00 Build 0)  -->
<!DOCTYPE svg PUBLIC "-//W3C//DTD SVG 1.1//EN" "http://www.w3.org/Graphics/SVG/1.1/DTD/svg11.dtd">
<svg version="1.1" id="Icons" xmlns="http://www.w3.org/2000/svg" xmlns:xlink="http://www.w3.org/1999/xlink" x="0px" y="0px"
	 width="100px" height="100px" viewBox="0 0 100 100" style="enable-background:new 0 0 100 100;" xml:space="preserve">
<path id="Blogger" d="M66.296,95c15.692,0,28.439-12.783,28.527-28.389L95,43.633l-0.265-1.25l-0.754-1.573l-1.275-0.986
	C91.05,38.525,82.659,39.912,80.4,37.86c-1.603-1.464-1.853-4.109-2.338-7.694c-0.901-6.943-1.47-7.305-2.558-9.659
	C71.554,12.149,60.835,5.868,53.47,5H33.523C17.83,5,5,17.802,5,33.438v33.173C5,82.217,17.83,95,33.523,95H66.296z M33.886,28.233
	h15.815c3.019,0,5.465,2.451,5.465,5.43c0,2.967-2.446,5.438-5.465,5.438H33.886c-3.02,0-5.46-2.472-5.46-5.438
	C28.426,30.684,30.866,28.233,33.886,28.233z M28.426,66.191c0-2.978,2.44-5.411,5.46-5.411h32.135c3,0,5.436,2.433,5.436,5.411
	c0,2.939-2.436,5.41-5.436,5.41H33.886C30.866,71.602,28.426,69.13,28.426,66.191z"/>
</svg>

<?xml version="1.0" encoding="UTF-8" standalone="no"?>
<!DOCTYPE svg PUBLIC "-//W3C//DTD SVG 1.1//EN" "http://www.w3.org/Graphics/SVG/1.1/DTD/svg11.dtd">
<svg width="100%" height="100%" viewBox="0 0 100 100" version="1.1" xmlns="http://www.w3.org/2000/svg" xmlns:xlink="http://www.w3.org/1999/xlink" xml:space="preserve" xmlns:serif="http://www.serif.com/" style="fill-rule:evenodd;clip-rule:evenodd;stroke-linejoin:round;stroke-miterlimit:2;">
    <path id="Blogger" d="M66.296,95C81.988,95 94.735,82.217 94.823,66.611L95,43.633L94.735,42.383L93.981,40.81L92.706,39.824C91.05,38.525 82.659,39.912 80.4,37.86C78.797,36.396 78.547,33.751 78.062,30.166C77.161,23.223 76.592,22.861 75.504,20.507C71.554,12.149 49.933,4.919 33.523,5C17.113,5.081 5,17.802 5,33.438L5,66.611C5,82.217 17.83,95 33.523,95L66.296,95ZM33.886,28.233L49.701,28.233C52.72,28.233 55.166,30.684 55.166,33.663C55.166,36.63 52.72,39.101 49.701,39.101L33.886,39.101C30.866,39.101 28.426,36.629 28.426,33.663C28.426,30.684 30.866,28.233 33.886,28.233ZM28.426,66.191C28.426,63.213 30.866,60.78 33.886,60.78L66.021,60.78C69.021,60.78 71.457,63.213 71.457,66.191C71.457,69.13 69.021,71.601 66.021,71.601L33.886,71.601C30.866,71.602 28.426,69.13 28.426,66.191Z" style="fill:rgb(255,0,0);fill-rule:nonzero;"/>
</svg>
